src/icons/brands/jetpack.svg

<svg fill="none" viewBox="0 0 128 128" xmlns="http://www.w3.org/2000/svg"><rect fill="#2c3338" height="103.619" rx="12.1905" width="103.619" x="12.1904" y="12.1905"/><path d="m63.9999 96.508c17.9536 0 32.5079-14.5543 32.5079-32.5079 0-17.9537-14.5543-32.508-32.5079-32.508-17.9537 0-32.508 14.5543-32.508 32.508 0 17.9536 14.5543 32.5079 32.508 32.5079z" fill="#069e08"/><g fill="#fff"><path d="m65.6123 58.5411v31.5153l16.254-31.5153z"/><path d="m62.3252 69.3972v-31.4533l-16.1919 31.4533z"/></g></svg>

<svg viewBox="0 0 128 128" fill="none" xmlns="http://www.w3.org/2000/svg">
<rect x="12.1904" y="12.1905" width="103.619" height="103.619" rx="12.1905" fill="#2C3338"/>
<path d="M63.9999 96.508C81.9535 96.508 96.5078 81.9537 96.5078 64.0001C96.5078 46.0464 81.9535 31.4921 63.9999 31.4921C46.0462 31.4921 31.4919 46.0464 31.4919 64.0001C31.4919 81.9537 46.0462 96.508 63.9999 96.508Z" fill="#069E08"/>
<path d="M65.6123 58.5411V90.0564L81.8663 58.5411H65.6123Z" fill="white"/>
<path d="M62.3252 69.3972V37.9439L46.1333 69.3972H62.3252Z" fill="white"/>
</svg>
